X:1993
T:Polska efter Niklas Larsson, EÖ10
R:Polska
O:Svarteborg, Bohuslän
S:efter Niklas Larsson
B:EÖ nr 10
N:Radbrytningar inte samma som i uppteckningen
Z:Julia Klingvall, http://julia.klingvall.se/
M: 3/4
L: 1/8 
Q:1/4=120
K: Em
|:e2> a2 fa|gf (3ede (3fgf|(3efg (3gfg (3gfg|(3agf (3ede (f2|
f2) fafa|g>f (3ede (3fgf|e>f (3gfg (3gfg|(ag) e4:|
|:[K: Am]A2> c2 B^G|A>B (3cAc B^G|A>c (3efe (3dBd|(3(cAc) (cB) (TBA)|
A2> c2 B^G|A>B (3cAc B>^G|A>c (3efe (3dBd|(3(cBc) A4:|
(:musicend:)
(:music:)
